modules/map-icons/icons/liquor-store.svg

<svg version="1.2" baseProfile="tiny" xmlns="http://www.w3.org/2000/svg" width="50" height="50" viewBox="0 0 50 50" overflow="inherit"><path d="M14 16c3 1 5 3.548 5 6.908v25.817c0 .794.803 1.275-.017 1.275h-14.801c-.818 0-1.182-.481-1.182-1.274v-25.818c0-3.368 2-6.154 5-6.908v-12h6v12zm-6-16h6v2h-6zm27.255 4.785c-.457-.065-.808-.436-.808-.883 0-.327.196-.612.481-.774-.285-.15-.481-.678-.481-1.008 0-.496.418-1.12.936-1.12h4.684c.521 0 .936.624.936 1.119 0 .345-.195.747-.492.892.285.155.492.494.492.833 0 .448-.338.847-.793.907l5.965 14.6c.35.949.825 2.016.825 3.064v25.585c0 .976.026 2-1 2h-15.089c-1.042 0-.911-1.024-.911-2v-26c0-1.047.195-1.686.547-2.636l4.708-14.579z"/></svg>

<svg version="1.2" baseProfile="tiny" xmlns="http://www.w3.org/2000/svg" width="50" height="50" viewBox="0 0 50 50" overflow="inherit"><path d="M14 16c3 1 5 3.548 5 6.908v25.817c0 .794.803 1.275-.017 1.275H4.182C3.364 50 3 49.519 3 48.726V22.908C3 19.54 5 16.754 8 16V4h6v12zM8 0h6v2H8zm27.255 4.785c-.457-.065-.808-.436-.808-.883 0-.327.196-.612.481-.774-.285-.15-.481-.678-.481-1.008 0-.496.418-1.12.936-1.12h4.684c.521 0 .936.624.936 1.119 0 .345-.195.747-.492.892a.984.984 0 0 1 .492.833.921.921 0 0 1-.793.907l5.965 14.6c.35.949.825 2.016.825 3.064V48c0 .976.026 2-1 2H30.911C29.869 50 30 48.976 30 48V22c0-1.047.195-1.686.547-2.636l4.708-14.579z"/></svg>
